assets/Man firefighter/Dark/Flat/man_firefighter_flat_dark.svg

<svg width="32" height="32" viewBox="0 0 32 32" fill="none" xmlns="http://www.w3.org/2000/svg">
<path d="M23.5 8H8.65C8.26 8.32 7.88 8.64 7.5 8.96V11C7.5 15.69 11.31 19.5 16 19.5C20.69 19.5 24.5 15.69 24.5 11V9.31C24.15 8.89 23.82 8.45 23.5 8Z" fill="#990838"/>
<path d="M16.005 15.5C12.8287 15.5 9.96433 16.846 7.9546 19C7.13548 19.8779 7 22 7 22C7 22 6 24.3963 6 26V28V29L8 30H16H24L26 29V28V26C26 24.3963 25 22 25 22C25 22 24.8406 19.8368 24 18.9466C21.9955 16.8238 19.155 15.5 16.005 15.5Z" fill="#F92F60"/>
<path d="M17.3575 19.5H14.4926C13.4232 19.5 12.55 18.6489 12.55 17.6066V16H19.3V17.6066C19.3 18.6585 18.4269 19.5 17.3575 19.5Z" fill="#990838"/>
<path d="M14.75 16V18.5368C14.75 18.9861 15.0673 19.3612 15.5 19.4689V26H16.5V19.5H17.5283C18.6138 19.5 19.5 18.6512 19.5 17.6117V16H14.75Z" fill="#CA0B4A"/>
<path d="M9.00005 18C6.57005 20.03 4.99005 23.09 5.00005 26.5V30H9.00005V18Z" fill="#CA0B4A"/>
<path d="M23 18V30H27V26.5C27 23.09 25.45 20.02 23 18Z" fill="#CA0B4A"/>
<path d="M23 26H9V30H23V26Z" fill="#FCD53F"/>
<path d="M12.7701 10.5899C12.7701 11.5122 12.0224 12.2599 11.1001 12.2599C10.1777 12.2599 9.43005 11.5122 9.43005 10.5899C9.43005 9.66761 10.1777 8.91992 11.1001 8.91992C12.0224 8.91992 12.7701 9.66761 12.7701 10.5899Z" fill="#4E3233"/>
<path d="M22.56 10.5899C22.56 11.5122 21.8123 12.2599 20.89 12.2599C19.9677 12.2599 19.22 11.5122 19.22 10.5899C19.22 9.66761 19.9677 8.91992 20.89 8.91992C21.8123 8.91992 22.56 9.66761 22.56 10.5899Z" fill="#4E3233"/>
<path d="M15.5553 3C12.7685 3 10.5647 5.40719 10.7623 8.24748L11.1576 13.9381C11.3256 15.7209 12.7092 17 14.3892 17H17.6108C19.2908 17 20.6744 15.7209 20.8424 13.9381L21.2377 8.24748C21.4353 5.41727 19.2315 3 16.4447 3H15.5553V3Z" fill="#573739"/>
<path d="M12.3099 10.5016C12.4599 9.89164 13.0199 9.43164 13.6799 9.43164C14.3699 9.43164 14.9399 9.92164 15.0699 10.5716C15.0999 10.7116 14.9899 10.8416 14.8399 10.8416H12.5799C12.3999 10.8416 12.2599 10.6716 12.3099 10.5016Z" fill="white"/>
<path d="M19.9 10.5016C19.75 9.89164 19.19 9.43164 18.53 9.43164C17.84 9.43164 17.27 9.92164 17.14 10.5716C17.11 10.7116 17.22 10.8416 17.37 10.8416H19.63C19.81 10.8416 19.94 10.6816 19.9 10.5016Z" fill="white"/>
<path d="M12.98 10.6117C12.98 10.1117 13.39 9.70166 13.89 9.70166C14.39 9.70166 14.79 10.1017 14.79 10.6017C14.79 10.6917 14.78 10.7717 14.76 10.8517H13.01C12.99 10.7717 12.98 10.6917 12.98 10.6117Z" fill="#7D4533"/>
<path d="M19.2299 10.6117C19.2299 10.1117 18.8199 9.70166 18.3199 9.70166C17.8199 9.70166 17.4199 10.1017 17.4199 10.6117C17.4199 10.6917 17.4299 10.7717 17.4499 10.8517H19.1999C19.2199 10.7717 19.2299 10.6917 19.2299 10.6117Z" fill="#7D4533"/>
<path d="M13.89 10.0815C14.18 10.0815 14.41 10.3115 14.41 10.6015C14.41 10.6915 14.38 10.7715 14.35 10.8415H13.43C13.39 10.7715 13.37 10.6915 13.37 10.6015C13.37 10.3115 13.6 10.0815 13.89 10.0815Z" fill="black"/>
<path d="M18.3199 10.0815C18.0299 10.0815 17.7999 10.3115 17.7999 10.6015C17.7999 10.6915 17.8299 10.7715 17.8599 10.8415H18.7799C18.8199 10.7715 18.8399 10.6915 18.8399 10.6015C18.8399 10.3115 18.6099 10.0815 18.3199 10.0815Z" fill="black"/>
<path d="M13.7399 10.2518C13.7399 10.3402 13.6683 10.4118 13.5799 10.4118C13.4916 10.4118 13.4199 10.3402 13.4199 10.2518C13.4199 10.1634 13.4916 10.0918 13.5799 10.0918C13.6683 10.0918 13.7399 10.1634 13.7399 10.2518Z" fill="white"/>
<path d="M18.2 10.2518C18.2 10.3402 18.1284 10.4118 18.04 10.4118C17.9516 10.4118 17.88 10.3402 17.88 10.2518C17.88 10.1634 17.9516 10.0918 18.04 10.0918C18.1284 10.0918 18.2 10.1634 18.2 10.2518Z" fill="white"/>
<path d="M21.183 4.3917L20.7647 4.1817C20.4729 4.0317 20.2005 3.8317 19.967 3.5917L19.1499 2.7517C18.537 2.1217 17.6323 1.9117 16.8151 2.2017C16.2898 2.3917 15.7061 2.3917 15.1808 2.2017C14.4707 1.8317 13.6049 1.9817 13.0309 2.5617L12.0386 3.5817C11.8052 3.8217 11.5328 4.0217 11.2312 4.1817L10.8226 4.3917C10.0541 4.7917 9.62608 5.6617 9.78173 6.5317L10.3362 9.6617C10.3946 9.9717 10.6573 10.2017 10.9588 10.2117C10.9588 10.2117 10.9005 9.3217 10.8615 8.7517C10.8421 8.4617 10.9588 8.1717 11.1728 7.9717L11.3577 7.8017C11.6106 7.5717 11.7468 7.2417 11.7468 6.9017V6.0217C11.7468 5.7717 11.9122 5.5517 12.1457 5.4917C12.778 5.3317 14.1302 5.0517 15.998 5.0517C17.8658 5.0517 19.218 5.3317 19.8503 5.4917C20.0837 5.5517 20.2491 5.7717 20.2491 6.0217V6.9017C20.2491 7.2417 20.395 7.5717 20.6382 7.8017L20.8328 7.9817C21.0468 8.1817 21.1636 8.4617 21.1441 8.7617C21.1052 9.3317 21.0468 10.2117 21.0468 10.2117C21.3484 10.1917 21.6013 9.9717 21.6597 9.6617L22.2142 6.5317C22.3796 5.6617 21.9613 4.7917 21.183 4.3917Z" fill="black"/>
<path d="M19.24 8.93176C19.35 9.00177 19.46 9.04177 19.58 9.04177C19.75 9.04177 19.91 8.97177 20.01 8.82177C20.2 8.58177 20.15 8.23177 19.91 8.04177C19.88 8.01177 19.04 7.37177 17.82 7.52177C17.51 7.56177 17.29 7.84177 17.33 8.14176C17.37 8.45177 17.64 8.67177 17.95 8.63177C18.6767 8.54456 19.1781 8.88922 19.2358 8.92891C19.2377 8.93018 19.24 8.93176 19.24 8.93176Z" fill="black"/>
<path d="M12.19 8.82174C12.29 8.96174 12.46 9.04173 12.63 9.04173C12.74 9.04173 12.86 9.00173 12.96 8.93173C12.98 8.91173 13.49 8.54174 14.25 8.63174C14.56 8.66174 14.83 8.44173 14.87 8.14173C14.9 7.83173 14.68 7.56173 14.38 7.52173C13.17 7.38173 12.32 8.01173 12.29 8.04173C12.05 8.23173 12 8.57174 12.19 8.82174Z" fill="black"/>
<path d="M15.6541 10.2897L15.1583 12.0282C15.0554 12.384 15.2986 12.75 15.6447 12.75H16.3743C16.7204 12.75 16.9636 12.384 16.8607 12.0282L16.365 10.2897C16.2621 9.90342 15.7663 9.90342 15.6541 10.2897Z" fill="#3D2123"/>
<path d="M16.0005 13.7057C15.45 13.7057 14.9301 13.5669 14.4918 13.3212C14.3389 13.2358 14.186 13.4174 14.2777 13.5669C14.6447 14.1542 15.2767 14.5493 16.0005 14.5493C16.7243 14.5493 17.3563 14.1542 17.7233 13.5669C17.8151 13.4174 17.652 13.2465 17.5093 13.3212C17.0607 13.5669 16.551 13.7057 16.0005 13.7057Z" fill="#290118"/>
<path d="M22.5 7L22.5 6.98C22.5 4.23 20.2631 2 17.5046 2H14.4954C11.7369 2 9.5 4.23 9.5 6.98V7C8.4 7 7.5 7.89 7.5 9V10.68C7.5 9.2 8.69 8 10.17 8H21.82C23.3 8 24.5 9.2 24.5 10.68V9C24.5 7.9 23.61 7 22.5 7Z" fill="#F92F60"/>
<path d="M18.75 7H13.25V5.69367C13.25 4.20506 14.4803 3 16 3C17.5197 3 18.75 4.20506 18.75 5.69367V7Z" fill="#321B41"/>
<path d="M15.3468 6.24005C14.964 5.89007 14.75 5.40626 14.75 4.91217V4.78864C14.75 4.62394 14.964 4.55189 15.0878 4.66512L15.1892 4.75776C15.3131 4.87099 15.527 4.78864 15.527 4.63424C15.527 4.24308 15.7523 3.8725 16.1239 3.66663L16.3829 3.52252C16.4955 3.46076 16.6419 3.53281 16.6419 3.65634V4.8607C16.6419 5.06657 16.9122 5.15922 17.0586 5.0254C17.1261 4.96364 17.25 5.00481 17.25 5.09745V5.3445C17.25 5.69449 17.0923 6.02389 16.7995 6.25035C16.5968 6.41505 16.3491 6.4974 16.0788 6.4974H16.0563C15.7973 6.51798 15.5383 6.41505 15.3468 6.24005Z" fill="#F9C23C"/>
<path d="M24 16.3799L22.65 16.0199C22.38 15.9499 22.11 16.1099 22.04 16.3699L18.38 29.9999H20.87L24.36 16.9899C24.42 16.7299 24.26 16.4499 24 16.3799Z" fill="#6D4534"/>
<path d="M21.39 16.9598L25.6 18.0898C26.0107 18.1972 26.4374 18.2288 26.8549 18.1819L28 18.5V18.0898L29 19.5C29.24 20.5702 28.91 20.46 28.5 22C28.09 23.54 27.5471 24.4316 26.749 24.8616C26.669 24.8816 26.38 24.9316 26.33 24.8616L26 24.5C25.8473 24.323 25.4665 24.3839 25.2819 24.2447C24.9345 23.9828 24.5379 23.7908 24.12 23.6798L19.91 22.5498C19.67 22.4898 19.52 22.2598 19.58 22.0398L20.87 17.2298C20.91 17.0198 21.15 16.8998 21.39 16.9598Z" fill="#9B9B9B"/>
<path d="M28.3 21.81C28.68 20.38 28.05 18.92 26.85 18.19C27.09 18.16 27.34 18.11 27.57 18.03L28.02 17.88C28.1 17.85 28.19 17.87 28.26 17.94C29.29 19 29.76 20.56 29.35 22.1C28.94 23.64 27.75 24.76 26.33 25.16C26.25 25.18 26.15 25.16 26.1 25.09L25.79 24.73C25.63 24.54 25.44 24.38 25.25 24.23C26.64 24.19 27.92 23.23 28.3 21.81Z" fill="#D3D3D3"/>
</svg>

<svg xmlns="http://www.w3.org/2000/svg" width="32" height="32" fill="none"><path fill="#990838" d="M23.5 8H8.65c-.39.32-.77.64-1.15.96V11c0 4.69 3.81 8.5 8.5 8.5 4.69 0 8.5-3.81 8.5-8.5V9.31c-.35-.42-.68-.86-1-1.31Z"/><path fill="#F92F60" d="M16.005 15.5a10.98 10.98 0 0 0-8.05 3.5c-.82.878-.955 3-.955 3s-1 2.396-1 4v3l2 1h16l2-1v-3c0-1.604-1-4-1-4s-.16-2.163-1-3.053a10.962 10.962 0 0 0-7.995-3.447Z"/><path fill="#990838" d="M17.358 19.5h-2.865c-1.07 0-1.943-.851-1.943-1.893V16h6.75v1.607c0 1.052-.873 1.893-1.942 1.893Z"/><path fill="#CA0B4A" d="M14.75 16v2.537c0 .45.317.824.75.932V26h1v-6.5h1.028c1.086 0 1.972-.849 1.972-1.888V16h-4.75ZM9 18c-2.43 2.03-4.01 5.09-4 8.5V30h4V18ZM23 18v12h4v-3.5c0-3.41-1.55-6.48-4-8.5Z"/><path fill="#FCD53F" d="M23 26H9v4h14v-4Z"/><path fill="#4E3233" d="M12.77 10.59a1.67 1.67 0 1 1-3.34 0 1.67 1.67 0 0 1 3.34 0ZM22.56 10.59a1.67 1.67 0 1 1-3.34 0 1.67 1.67 0 0 1 3.34 0Z"/><path fill="#573739" d="M15.555 3c-2.787 0-4.99 2.407-4.793 5.247l.396 5.691C11.326 15.721 12.709 17 14.389 17h3.222c1.68 0 3.063-1.28 3.231-3.062l.396-5.69C21.435 5.417 19.232 3 16.445 3h-.89Z"/><path fill="#fff" d="M12.31 10.502c.15-.61.71-1.07 1.37-1.07.69 0 1.26.49 1.39 1.14.03.14-.08.27-.23.27h-2.26c-.18 0-.32-.17-.27-.34ZM19.9 10.502c-.15-.61-.71-1.07-1.37-1.07-.69 0-1.26.49-1.39 1.14-.03.14.08.27.23.27h2.26c.18 0 .31-.16.27-.34Z"/><path fill="#7D4533" d="M12.98 10.612c0-.5.41-.91.91-.91s.9.4.9.9c0 .09-.01.17-.03.25h-1.75a.986.986 0 0 1-.03-.24ZM19.23 10.612c0-.5-.41-.91-.91-.91s-.9.4-.9.91c0 .08.01.16.03.24h1.75c.02-.08.03-.16.03-.24Z"/><path fill="#000" d="M13.89 10.082a.516.516 0 0 1 .46.76h-.92a.516.516 0 0 1 .46-.76ZM18.32 10.082a.516.516 0 0 0-.46.76h.92a.516.516 0 0 0-.46-.76Z"/><path fill="#fff" d="M13.74 10.252a.16.16 0 1 1-.32 0 .16.16 0 0 1 .32 0ZM18.2 10.252a.16.16 0 1 1-.32 0 .16.16 0 0 1 .32 0Z"/><path fill="#000" d="m21.183 4.392-.418-.21a3.086 3.086 0 0 1-.798-.59l-.817-.84a2.212 2.212 0 0 0-2.335-.55c-.525.19-1.109.19-1.634 0-.71-.37-1.576-.22-2.15.36l-.992 1.02c-.234.24-.506.44-.808.6l-.408.21a2.015 2.015 0 0 0-1.041 2.14l.554 3.13c.059.31.321.54.623.55l-.098-1.46a.987.987 0 0 1 .312-.78l.185-.17c.253-.23.389-.56.389-.9v-.88c0-.25.165-.47.399-.53.632-.16 1.984-.44 3.852-.44 1.868 0 3.22.28 3.852.44.234.06.4.28.4.53v.88c0 .34.145.67.388.9l.195.18c.214.2.33.48.311.78l-.097 1.45a.668.668 0 0 0 .613-.55l.554-3.13a1.982 1.982 0 0 0-1.031-2.14Z"/><path fill="#000" d="M19.24 8.932c.11.07.22.11.34.11.17 0 .33-.07.43-.22.19-.24.14-.59-.1-.78-.03-.03-.87-.67-2.09-.52a.56.56 0 0 0 .13 1.11 1.917 1.917 0 0 1 1.29.3ZM12.19 8.822c.1.14.27.22.44.22.11 0 .23-.04.33-.11.02-.02.53-.39 1.29-.3.31.03.58-.19.62-.49a.568.568 0 0 0-.49-.62c-1.21-.14-2.06.49-2.09.52-.24.19-.29.53-.1.78Z"/><path fill="#3D2123" d="m15.654 10.29-.496 1.738c-.103.356.14.722.487.722h.73c.345 0 .589-.366.486-.722l-.496-1.738c-.103-.387-.599-.387-.71 0Z"/><path fill="#290118" d="M16 13.706c-.55 0-1.07-.14-1.508-.385-.153-.085-.306.096-.214.246.367.587.999.982 1.722.982.724 0 1.356-.395 1.723-.982.092-.15-.071-.32-.214-.246a3.118 3.118 0 0 1-1.509.385Z"/><path fill="#F92F60" d="M22.5 7v-.02C22.5 4.23 20.263 2 17.505 2h-3.01C11.737 2 9.5 4.23 9.5 6.98V7a2 2 0 0 0-2 2v1.68C7.5 9.2 8.69 8 10.17 8h11.65c1.48 0 2.68 1.2 2.68 2.68V9a2 2 0 0 0-2-2Z"/><path fill="#321B41" d="M18.75 7h-5.5V5.694C13.25 4.205 14.48 3 16 3s2.75 1.205 2.75 2.694V7Z"/><path fill="#F9C23C" d="M15.347 6.24a1.807 1.807 0 0 1-.597-1.328V4.79c0-.165.214-.237.338-.124l.101.093c.124.113.338.03.338-.124 0-.39.225-.762.597-.967l.259-.144c.113-.062.259.01.259.133v1.205c0 .206.27.298.417.164.067-.061.191-.02.191.072v.247c0 .35-.158.68-.45.906-.203.165-.45.247-.721.247h-.023a.957.957 0 0 1-.71-.257Z"/><path fill="#6D4534" d="m24 16.38-1.35-.36a.5.5 0 0 0-.61.35L18.38 30h2.49l3.49-13.01a.52.52 0 0 0-.36-.61Z"/><path fill="#9B9B9B" d="m21.39 16.96 4.21 1.13c.41.107.837.139 1.255.092L28 18.5v-.41l1 1.41c.24 1.07-.09.96-.5 2.5-.41 1.54-.953 2.432-1.751 2.862-.08.02-.369.07-.419 0L26 24.5c-.153-.177-.534-.116-.718-.255a3.372 3.372 0 0 0-1.162-.565l-4.21-1.13c-.24-.06-.39-.29-.33-.51l1.29-4.81c.04-.21.28-.33.52-.27Z"/><path fill="#D3D3D3" d="M28.3 21.81c.38-1.43-.25-2.89-1.45-3.62.24-.03.49-.08.72-.16l.45-.15c.08-.03.17-.01.24.06a4.353 4.353 0 0 1 1.09 4.16 4.338 4.338 0 0 1-3.02 3.06c-.08.02-.18 0-.23-.07l-.31-.36a3.64 3.64 0 0 0-.54-.5c1.39-.04 2.67-1 3.05-2.42Z"/></svg>
